X:1
T:Wop She 'Ad It-i-o
M:6/8
L:1/8
K:D
 A,2| D2 D DDD| D2 D D2 D| E2 E A2 A| D3- D2 D| EEE EEE| EEE EEE|E-F E C2 B,|\
 A,3- A,2 A| F2 G A2 A| F2 G A2 A/2A/2| B2 A G2 F| G3- G2 A| FFF F2 F|\
 F2 G A2 A| E2 E F2 D| A3- A2 A/2G/2| F2 F FED| GGA BAG| F2 F FED|\
 E3- E2 A| F2 F FED| GGA BAG| F2 F EDE| D3- D2||
